X: 108202
Q: "Reel."
M: C
L: 1/8
K: G
uD |\
bagf g2(Bd) | cABG ADFA |]
dBg2 dBg2 | g2(Bc) dBdg |\
dBg2 dBg2 | g2(Bc) dBdg |\
bagf egdb | caBg | ADFA |]


